src/lib/packages/icons/src/assets/line/fast-backward.svg

<svg width="24" height="24" viewBox="0 0 24 24" fill="none" xmlns="http://www.w3.org/2000/svg">
<path d="M20.226 5.52197C19.291 5.06997 18.207 5.18901 17.392 5.83301L12.75 9.49805V7.96411C12.75 6.91411 12.166 5.97895 11.226 5.52295C10.291 5.07095 9.20697 5.18998 8.39197 5.83398L3.75 9.49902V6C3.75 5.586 3.414 5.25 3 5.25C2.586 5.25 2.25 5.586 2.25 6V18C2.25 18.414 2.586 18.75 3 18.75C3.414 18.75 3.75 18.414 3.75 18V14.501L8.39197 18.168C8.87897 18.552 9.462 18.75 10.052 18.75C10.449 18.75 10.85 18.66 11.226 18.479C12.166 18.023 12.75 17.0881 12.75 16.0381V14.5029L17.392 18.1699C17.879 18.5539 18.462 18.752 19.052 18.752C19.449 18.752 19.85 18.662 20.226 18.481C21.166 18.025 21.75 17.09 21.75 16.04V7.96704C21.75 6.91304 21.166 5.97797 20.226 5.52197ZM11.25 16.0371C11.25 16.5151 10.996 16.9219 10.571 17.1279C10.153 17.3309 9.68705 17.278 9.32104 16.991L4.20996 12.9541C3.91796 12.7231 3.75 12.375 3.75 12C3.75 11.625 3.91796 11.2769 4.20996 11.0459L9.32104 7.01001C9.68705 6.72201 10.153 6.67107 10.571 6.87207C10.996 7.07807 11.25 7.48589 11.25 7.96289V16.0371ZM20.25 16.0371C20.25 16.5151 19.996 16.9219 19.571 17.1279C19.153 17.3309 18.687 17.278 18.321 16.991L13.21 12.9541C12.918 12.7231 12.75 12.375 12.75 12C12.75 11.625 12.918 11.2769 13.21 11.0459L18.321 7.01001C18.687 6.72201 19.154 6.67107 19.571 6.87207C19.996 7.07807 20.25 7.48589 20.25 7.96289V16.0371Z" fill="currentColor"/>
</svg>

<svg xmlns="http://www.w3.org/2000/svg" width="24" height="24" fill="none"><path fill="currentColor" d="M20.226 5.522a2.664 2.664 0 0 0-2.834.311L12.75 9.498V7.964c0-1.05-.584-1.985-1.524-2.441a2.664 2.664 0 0 0-2.834.311L3.75 9.499V6a.75.75 0 0 0-1.5 0v12a.75.75 0 0 0 1.5 0v-3.499l4.642 3.667c.487.384 1.07.582 1.66.582a2.706 2.706 0 0 0 2.698-2.712v-1.535l4.642 3.667c.487.384 1.07.582 1.66.582a2.706 2.706 0 0 0 2.698-2.712V7.967a2.692 2.692 0 0 0-1.524-2.445ZM11.25 16.037c0 .478-.254.885-.679 1.09a1.16 1.16 0 0 1-1.25-.136L4.21 12.954A1.21 1.21 0 0 1 3.75 12c0-.375.168-.723.46-.954L9.321 7.01a1.164 1.164 0 0 1 1.25-.138c.425.206.679.614.679 1.09v8.075Zm9 0c0 .478-.254.885-.679 1.09a1.16 1.16 0 0 1-1.25-.136l-5.111-4.037a1.21 1.21 0 0 1-.46-.954c0-.375.168-.723.46-.954l5.111-4.036a1.164 1.164 0 0 1 1.25-.138c.425.206.679.614.679 1.09v8.075Z"/></svg>
